X:80
T:B080-  Come, shepherds, deck your heads
S:(2nd/3)
Q:1/4=120
L:1/4
M:3/2
K:Gmixolydian
zGGABc|
M:2/2
L1/4
d3d|_edcB|c2B2:|\
M:3/2
L:1/4
zcd3/2c/2BA|
M:2/2
L:1/4
G3d|^cdef|e2d2|\
M:3/2
L:1/4
zAc3/2B/2AG|\
M:2/2
L:1/4
^F3G|ABcB|\
M:3/2
L:1/4
A2G4|]

